X:1
T:Psalm 27
T:Alice Tegnér (1864-1943)
T:Psalm 27
T:©PA Aglert Edition may be freely distributed, duplicated, performed and recorded
T:©PA Aglert Edition may be freely distributed, duplicated, performed and recorded
T:©PA Aglert Edition may be freely distributed, duplicated, performed and recorded
C:Alice Tegnér (1864-1943)
Z:©PA Aglert
Z:Edition may be freely distributed, duplicated, performed and recorded
%%score [ 1 2 3 4 ]
L:1/8
Q:1/4=120
M:4/4
K:Bb
V:1 treble nm="S"
V:2 treble nm="A"
V:3 treble-8 nm="T"
V:4 bass nm="B"
V:1
!mf! F3 F!<(! B2 d2!<)! | f6 f2 | _g4 _d2 g2 |!>(! f4!>)! !courtesy!=d2 z2 | z8 | %5
w: Her- ren är mitt|ljus, mitt|ljus och min|fräls- ning,||
!<(! z2!p! B2!<)! A2 G2- | G2 F2 e3 d | !>!d2 !>!c2 z2!f! F2 |!<(! F6!<)! B2 | B6!<)!!<(! B2 | %10
w: för vem skul-|* le jag väl|rä- das? Mitt|värn, mitt|värn mitt|
!f! e4 e2 e2 |!>(! e2!>)! e2!mf! z2 e2 |!>(! g4 e2 d2 | (d2 c2)!>)! B2!p! G2 | (B2 A2 G2 F2) | %15
w: livs värn är|Her- ren. Min|Gud är mitt|livs _ värn, mitt|livs _ _ _|
 B2 z2 z2 z2 | z2 z!<(! _D DD!<)!=EE | !>!_A!>!G z2 z2 z2 | z =EEF FEGB | !>!B2 !>!A2 z2!mp! c2 | %20
w: värn.|om hä- rar stor- ma|mot mig|och om än krig upp- står e-|mot mig, så|
 f3 B BBcB | e4 _A2!pp! A2 | _d3 G G2 (_AG) | c4 c2"^cresc." c2 | e4 e4 | e6 e2 |"^dim." e4 e4 | %27
w: fruk- tar än- då ej mitt|hjär- ta, så|fruk- tar ej mitt _|hjär- ta, då|är jag|trygg, då|är jag|
 e4 z2 B2 | B4!<(! B4!<)! | B4 B4 |!>(! A4!>)! A4 | G2 z2!mf! E2 GB |!<(! _d3 d!<)! =d3 d | %33
w: trygg. Han|mig be-|skär- mer|i sitt|tjäll. Och jag vill|off- ra jub- lets|
 !>!!courtesy!_e2 !>!e2 E2 GB |!<(! e3 e =e3 e!<)! | f2 f2!f! A2 cf | g2 f2 d2 c2 | (F2 GA) B2 d2 | %38
w: of- fer ja jag vill|off- ra jub- lets|of- fer, jag vill till|Her- rens ä- ra|sjun- * * ga och|
 g4 f3 f | (dedc) B4 | B4 B4 | B2 B2 z4 |] %42
w: lov- sä- ga|Ho- * * * nom|lo- va|Her- ren.|
V:2
!mf! D3 D!<(! F2 B2!<)! | B6 B2 | B4 B2 B2 |!>(! B4!>)! B2 z2 | z2 z2 z2!p! G2 | %5
w: Her- ren är mitt|ljus, mitt|ljus och min|fräls- ning,|för|
!<(! F2 F2!<)! E2 D2 | C4 E3 E | !>!E2 !>!E2 z2!f! F2 |!<(! D6!<)! F2 | F6!<)!!<(! F2 | %10
w: vem, för vem skul-|le jag väl|rä- das? Mitt|värn, mitt|värn mitt|
!f! G4 G2 G2 |!>(! G2 G2!>)!!mf! z2 G2 |!>(! G4 G2 G2 | _G4!>)! F2!p! F2 | E8 | D2 z2 z2 z2 | %16
w: livs värn är|Her- ren. Min|Gud är mitt|livs värn, mitt|livs|värn.|
 z2 z!<(! _D B,B,!<)!DD | !>!=E!>!E z2 z2 z2 | z _DDC DDGG | !>!_G2 !>!G2 z2!mp! F2 | F3 F E2 E2 | %21
w: om hä- rar stor- ma|mot mig|och om än krig upp- står e-|mot mig, så|fruk- tar ej mitt|
 E4 F2!pp! E2 | _D3 D C2 C2 | C4 C2"^cresc." E2 | E4 (E2 G2) | G6 G2 |"^dim." _G4 G4 | %27
w: hjär- ta, så|fruk- tar ej mitt|hjär- ta, då|är jag _|trygg, då|är jag|
 !courtesy!=G2 B2 G2 E2 | (C2 E2)!<(! D2 B,2!<)! | (C2 E2) (D2 B,2) |!>(! (C2 E2)!>)! (D2 B,2) | %31
w: trygg. Han mig be-|skär- * mer, be-|skär- * mer _|i _ sitt _|
 B,2 z2!mf! E2 EE |!<(! G3 G!<)! G3 G | !>!G2 !>!G2 E2 GB |!<(! G3 G G3 G!<)! | A2 A2!f! A2 AA | %36
w: tjäll. Och jag vill|off- ra jub- lets|of- fer ja jag vill|off- ra jub- lets|of- fer, jag vill till|
 B2 A2 G2 F2 | D4 G2 B2 | E4 A3 E | D4 (EFEC) | D4 D4 | D2 D2 z4 |] %42
w: Her- rens ä- ra|sjun- ga och|lov- sä- ga|Ho- nom _ _ _|lo- va|Her- ren.|
V:3
!mf! B3 B!<(! d2 f2!<)! | d6 d2 | _d4 d2 d2 |!>(! !courtesy!=d4!>)! f2 z2 | z2!p! e2 (d2 A2) | %5
w: Her- ren är mitt|ljus, mitt|ljus och min|fräls- ning,|för vem, _|
!<(! (B2 B2)!<)! c2 d2 | c4 B3 B | !>!A2 !>!A2 z2!f! F2 |!<(! B6!<)! d2 |!<(! d6!<)! d2 | %10
w: för _ vem skul-|le jag väl|rä- das? Mitt|värn, mitt|värn mitt|
!f! B4 B2 B2 |!>(! B2 B2!>)!!mf! z2 B2 |!>(! B4 B2 B2 | A4!>)! B2!p! B2 | (B2 c2 B2 A2) | %15
w: livs värn är|Her- ren. Min|Gud är mitt|livs värn, mitt|livs _ _ _|
 B2 z2!f! B2 Bc | _d3!<(! B GG!<)!BB | !>!_d!>!d z2!<(! B2 B!<)!c | _d3 c BBdd | %19
w: värn. Om ock en|här en här sig läg- rar|mot mig och om än|krig, om krig upp- e- *|
 !>!c2 !>!c2 z2!mp! A2 | _A3 A G2 G2 | _A4 A2!pp! A2 | F3 F =E2 E2 | =E4 F2"^cresc." ^F2 | %24
w: mot mig, så|fruk- tar ej mitt|hjär- ta, så|fruk- tar ej mitt|hjär- ta, ty|
 G2 G2 B2 B2 | e4 B2 e2 |"^dim." e4 e4 | e4 z2 G2 | A4!<(! (F2 D2)!<)! | (E2 G2) (F2 D2) | %30
w: Her- ren är min|fräls- ning, mitt|ljus mitt|värn. Han|mig be- *|skär- * mer _|
!>(! (E2 C2)!>)! (F2 D2) | E2 z2!mf! e2 BB |!<(! B3 B!<)! B3 B | !>!B2 !>!B2 z2 z2 | %34
w: i _ sitt _|tjäll. Och jag vill|off- ra jub- lets|of- fer|
!<(! B3 B B3 c!<)! | c2 c2!f! c2 cc | e2 c2 B2 c2 | d4 d2 d2 | B4 e3 A | F4 G4 | (FcBF) B4 | %41
w: off- ra jub- lets|of- fer, jag vill till|Her- rens ä- ra|sjun- ga och|lov- sä- ga|Ho- nom|lo- * * * va|
 F2 F2 z4 |] %42
w: Her- ren.|
V:4
!mf! B,3 B,!<(! B,2 B,2!<)! | B,6 B,2 | _G,4 G,2 G,2 |!>(! B,4!>)! B,2!p! B,2 | A,2 G,2 (F,2 E,2) | %5
w: Her- ren är mitt|ljus, mitt|ljus och min|fräls- ning, för|vem, för vem, _|
!<(! (D,2 _D,2)!<)! C,2 B,,2 | A,,4 G,,3 G,, | !>!F,,2 !>!F,,2 z2!f! F,2 |!<(! B,6!<)! B,2 | %9
w: för _ vem skul-|le jag väl|rä- das? Mitt|värn, mitt|
!<(! (B,2 A,2 G,2)!<)! F,2 |!f! E,4 E,2 E,2 |!>(! E,2 E,2!>)!!mf! z2 E,2 |!>(! C,4 C,2 E,2 | %13
w: värn _ _ mitt|livs värn är|Her- ren. Min|Gud är mitt|
 E,4!>)! D,2!p! _D,2 | (C,4 F,4) | B,,2 z2 z2 z2 |!f! z B,G,!<(!F, =E,E,!<)!G,G, | %17
w: livs värn, mitt|livs _|värn.|Om ock en här sig läg- rar|
 !>!B,!>!B, z2 z4 | z B,B,A, G,G,=E,E, | !>!!courtesy!_E,2 !>!E,2 z2!mp! E,2 | D,3 D, _D,2 D,2 | %21
w: mot mig|och om än krig upp- står e-|mot mig, så|fruk- tar ej mitt|
 C,4 _D,2!pp! C,2 | B,,3 B,, B,,2 B,,2 | _A,,4 A,,2"^cresc." =A,,2 | B,,2 E,2 G,2 B,2 | %25
w: hjär- ta, så|fruk- tar ej mitt|hjär- ta, ty|Her- ren är min|
 B,4 B,2 B,2 |"^dim." _C4 _G,2 C2 | B,4 z2 B,,2 | B,,4!<(! B,,4!<)! | B,,4 B,,4 | %30
w: fräls- ning, mitt|ljus och mitt|värn. Han|mig be-|skär- mer|
!>(! B,,4 B,,4!>)! | E,2 z2!mf! z2 B,G, |!<(! E,3 E,!<)! D,3 D, | !>!_D,2 !>!D,2 z2 z2 | %34
w: i sitt|tjäll. Jag vill|off- ra jub- lets|of- fer|
!<(! _D,3 D, C,3 C,!<)! | F,2 F,2!f! C2 A,E, | E,2 F,2 G,2 A,2 | (B,2 A,2) G,2 F,2 | C,4 F,3 F, | %39
w: off- ra jub- lets|of- fer, jag vill till|Her- rens ä- ra|sjun- * ga och|lov- sä- ga|
 B,,4 B,,4 | B,,4 (F,G,F,D,) | B,,2 B,,2 z4 |] %42
w: Ho- nom|lo- va _ _ _|Her- ren.|

